Adwaita++/apps/scalable/ardour.svg

<svg height="128" width="128" xmlns="http://www.w3.org/2000/svg" xmlns:xlink="http://www.w3.org/1999/xlink">
  <linearGradient id="linearGradient4726-5" gradientUnits="userSpaceOnUse" x1="96.209499803" x2="23.944111103" y1="14.795688114" y2="-52.015708986">
    <stop offset="0" stop-color="#dd1627"/>
    <stop offset="1" stop-color="#df3e52"/>
  </linearGradient>
  <g transform="translate(0 80)">
    <path d="m5.6352993 31.767759 57.0995267-104.791971 61.231704 113.339877s.35403.876041-1.24072.42236c-1.49907-.426473-2.78134-1.684096-4.33415-1.550308-1.3068.112625-2.08724 2.004126-3.38233 1.796355-1.85129-.297024-2.79925-3.82502-4.6734-3.769939-1.65081.04849-1.24479 3.203347-3.70803 3.411426-2.18596.184686-1.83021-5.811037-4.03255-5.995627-1.49328-.12516-1.82476 6.17778-3.676803 6.176457-1.960638-.0011.0811-9.066153-2.744244-9.217598-2.211422-.118543-.995347 7.956389-2.98144 7.96497-2.740493.01177-.413998-13.22433-3.792031-13.16851-2.401533.03971.181822 12.251485-2.94548 12.213094-2.879756-.03535-.104289-18.90008-3.337532-18.673338-2.667579.187072.328935 16.873741-2.606202 16.943358-3.553619.08428-.01495-23.242818-3.544816-23.273612-3.121461-.02736-.32407 20.633693-3.196738 20.634628-3.481642.0011.01082-26.659879-3.299091-26.8363884-3.601237-.192035.88103 26.7808844-3.045518 26.7523714-3.788347-.02736 1.080353-33.8485736-3.307903-34.1716195-3.595275-.2646687.982509 31.6603955-2.707087 31.8002505-3.876112.146922 1.171846-37.1841337-3.412718-37.1962202-3.357668-.00891.236799 35.7676432-3.24155 36.2692632-3.214344-.708138.64195-39.492722-3.113036-39.50555-3.875144-.01336.656091 38.55503-3.356007 38.648798-3.36357.04378 1.42706-38.706539-2.986543-38.57548-4.059758.120547.15532 38.387203-3.181496 38.348388-3.602901-.0419.922134-35.4098546-3.116212-35.1755343-3.076761 1.590837-.118829 27.3571523-3.071304 35.5400353-3.237125-3.203292.23368-25.3308697-3.365683-29.2245561-2.953019 4.2491994-.64403 29.7624101-3.044974 29.8592741-2.949864.14234-.142817-20.015536-3.304992-20.20668-1.894533-.114502-2.898031 22.834538-5.216591 22.922701-2.69578.269122-2.398039-12.908646-4.262275-12.867334-2.16105.275422-1.594882 14.419776-4.430195 14.45309-1.630466.387528-2.023448-5.574531-3.4801567-5.434905-1.306189.125192-1.5526677 6.269885-3.7142463 7.379107-1.9757067.26821-1.0153963-1.881924.5228133-5.240633z" fill="#180002" opacity=".1"/>
    <path d="m5.6352993 29.767759 57.0995267-104.791971 61.231704 113.339877s.35403.876041-1.24072.42236c-1.49907-.426473-2.78134-1.684096-4.33415-1.550308-1.3068.112625-2.08724 2.004126-3.38233 1.796355-1.85129-.297024-2.79925-3.82502-4.6734-3.769939-1.65081.04849-1.24479 3.203347-3.70803 3.411426-2.18596.184686-1.83021-5.811037-4.03255-5.995627-1.49328-.12516-1.82476 6.17778-3.676803 6.176457-1.960638-.0011.0811-9.066153-2.744244-9.217598-2.211422-.118543-.995347 7.956389-2.98144 7.96497-2.740493.01177-.413998-13.22433-3.792031-13.16851-2.401533.03971.181822 12.251485-2.94548 12.213094-2.879756-.03535-.104289-18.90008-3.337532-18.673338-2.667579.187072.328935 16.873741-2.606202 16.943358-3.553619.08428-.01495-23.242818-3.544816-23.273612-3.121461-.02736-.32407 20.633693-3.196738 20.634628-3.481642.0011.01082-26.659879-3.299091-26.8363884-3.601237-.192035.88103 26.7808844-3.045518 26.7523714-3.788347-.02736 1.080353-33.8485736-3.307903-34.1716195-3.595275-.2646687.982509 31.6603955-2.707087 31.8002505-3.876112.146922 1.171846-37.1841337-3.412718-37.1962202-3.357668-.00891.236799 35.7676432-3.24155 36.2692632-3.214344-.708138.64195-39.492722-3.113036-39.50555-3.875144-.01336.656091 38.55503-3.356007 38.648798-3.36357.04378 1.42706-38.706539-2.986543-38.57548-4.059758.120547.15532 38.387203-3.181496 38.348388-3.602901-.0419.922134-35.4098546-3.116212-35.1755343-3.076761 1.590837-.118829 27.3571523-3.071304 35.5400353-3.237125-3.203292.23368-25.3308697-3.365683-29.2245561-2.953019 4.2491994-.64403 29.7624101-3.044974 29.8592741-2.949864.14234-.142817-20.0155357-3.304992-20.2066797-1.894533-.114502-2.898031 22.8345377-5.216591 22.9227007-2.69578.269122-2.398039-12.908646-4.262275-12.867334-2.16105.275422-1.594882 14.419776-4.430195 14.45309-1.630466.387528-2.023448-5.574531-3.4801567-5.434905-1.306189.125192-1.5526677 6.269885-3.7142463 7.379107-1.9757067.26821-1.0153963-1.881924.5228133-5.240633z" fill="url(#linearGradient4726-5)"/>
  </g>
</svg>

<svg xmlns="http://www.w3.org/2000/svg" xmlns:xlink="http://www.w3.org/1999/xlink" width="128" height="128" version="1.1">
 <defs>
  <linearGradient id="linearGradient4786">
   <stop style="stop-color:#f8bac0;stop-opacity:0.730612" id="stop4788"/>
   <stop style="stop-color:#f8bac0;stop-opacity:0" id="stop4790" offset="1"/>
  </linearGradient>
  <linearGradient id="linearGradient4778">
   <stop style="stop-color:#dd1627" id="stop4780"/>
   <stop style="stop-color:#df3e52" id="stop4782" offset="1"/>
  </linearGradient>
  <linearGradient id="linearGradient4417" x1="400.768" x2="412.571" y1="521.798" y2="533.602" gradientUnits="userSpaceOnUse" xlink:href="#linearGradient4400"/>
  <linearGradient id="linearGradient4388" x1="403.571" x2="413.262" y1="522.798" y2="534.798" gradientUnits="userSpaceOnUse" xlink:href="#linearGradient4400"/>
  <linearGradient id="linearGradient4301" x2="0" y1="532.798" y2="506.798" gradientUnits="userSpaceOnUse" xlink:href="#linearGradient4303"/>
  <linearGradient id="linearGradient4277" x2="0" y1="543.798" y2="503.798" gradientUnits="userSpaceOnUse" xlink:href="#linearGradient4271"/>
  <linearGradient id="linearGradient4271">
   <stop style="stop-color:#2a2c2f" id="stop4273"/>
   <stop style="stop-color:#424649" id="stop4275" offset="1"/>
  </linearGradient>
  <linearGradient id="linearGradient4303">
   <stop style="stop-color:#989a9b" id="stop4305"/>
   <stop style="stop-color:#f6f6f7" id="stop4307" offset="1"/>
  </linearGradient>
  <linearGradient id="linearGradient4400">
   <stop style="stop-color:#020303" id="stop4402"/>
   <stop style="stop-color:#424649;stop-opacity:0" id="stop4404" offset="1"/>
  </linearGradient>
  <linearGradient id="linearGradient4227">
   <stop style="stop-color:#292c2f" id="stop4229"/>
   <stop style="stop-opacity:0" id="stop4231" offset="1"/>
  </linearGradient>
  <linearGradient id="linearGradient4435">
   <stop style="stop-color:#c61423" id="stop4437"/>
   <stop style="stop-color:#dc2b41" id="stop4439" offset="1"/>
  </linearGradient>
  <linearGradient id="linearGradient4390">
   <stop style="stop-color:#f7abb2" id="stop4392"/>
   <stop style="stop-color:#f9dce0" id="stop4394" offset="1"/>
  </linearGradient>
  <linearGradient id="linearGradient4719" x2="0" y1="538.798" y2="524.798" gradientTransform="translate(-424.99788,-498.65983)" gradientUnits="userSpaceOnUse" xlink:href="#linearGradient4390"/>
  <linearGradient id="linearGradient4723" x1="16" x2="35" y1="16" y2="35" gradientTransform="translate(-48.92645,9.13817)" gradientUnits="userSpaceOnUse" xlink:href="#linearGradient4227"/>
  <linearGradient id="linearGradient4726" x2="0" y1="545.798" y2="517.798" gradientTransform="matrix(1.4285711,0,0,1.4285711,-597.17116,-726.57292)" gradientUnits="userSpaceOnUse" xlink:href="#linearGradient4435"/>
  <linearGradient id="linearGradient4726-5" x1="442.171" x2="426.271" y1="531.698" y2="516.998" gradientTransform="matrix(4.544993,0,0,4.544993,-1913.4546,-2401.768)" gradientUnits="userSpaceOnUse" xlink:href="#linearGradient4778"/>
  <linearGradient id="linearGradient4760" x2="0" y1="545.798" y2="517.798" gradientTransform="matrix(1.4285711,0,0,1.4285711,-552.24472,-739.71109)" gradientUnits="userSpaceOnUse" xlink:href="#linearGradient4435"/>
  <linearGradient id="linearGradient4792" x1="-3.669" x2="34.44" y1="-2.348" y2="34.652" gradientTransform="translate(-42)" gradientUnits="userSpaceOnUse" xlink:href="#linearGradient4786"/>
  <linearGradient id="linearGradient4792-7" x1="7.947" x2="20.802" y1="3.107" y2="21.419" gradientUnits="userSpaceOnUse" xlink:href="#linearGradient4786"/>
  <linearGradient id="linearGradient4811" x1="-3.669" x2="34.44" y1="-2.348" y2="34.652" gradientTransform="translate(-1.616244,-1.937044)" gradientUnits="userSpaceOnUse" xlink:href="#linearGradient4786"/>
  <linearGradient id="linearGradient4913" x1="46.232" x2="73.027" y1="10.38" y2="35.663" gradientTransform="translate(-42.1285,-0.003396)" gradientUnits="userSpaceOnUse" xlink:href="#linearGradient4786"/>
 </defs>
 <g id="layer1" transform="translate(0,80)">
  <path d="M 5.6352993,31.767759 62.734826,-73.024212 123.96653,40.315665 c 0,0 0.35403,0.876041 -1.24072,0.42236 -1.49907,-0.426473 -2.78134,-1.684096 -4.33415,-1.550308 -1.3068,0.112625 -2.08724,2.004126 -3.38233,1.796355 -1.85129,-0.297024 -2.79925,-3.82502 -4.6734,-3.769939 -1.65081,0.04849 -1.24479,3.203347 -3.70803,3.411426 -2.18596,0.184686 -1.83021,-5.811037 -4.03255,-5.995627 -1.49328,-0.12516 -1.82476,6.17778 -3.676803,6.176457 -1.960638,-0.0011 0.0811,-9.066153 -2.744244,-9.217598 -2.211422,-0.118543 -0.995347,7.956389 -2.98144,7.96497 -2.740493,0.01177 -0.413998,-13.22433 -3.792031,-13.16851 -2.401533,0.03971 0.181822,12.251485 -2.94548,12.213094 -2.879756,-0.03535 -0.104289,-18.90008 -3.337532,-18.673338 -2.667579,0.187072 0.328935,16.873741 -2.606202,16.943358 -3.553619,0.08428 -0.01495,-23.242818 -3.544816,-23.273612 -3.121461,-0.02736 -0.32407,20.633693 -3.196738,20.634628 -3.481642,0.0011 0.01082,-26.659879 -3.299091,-26.8363884 -3.601237,-0.192035 0.88103,26.7808844 -3.045518,26.7523714 -3.788347,-0.02736 1.080353,-33.8485736 -3.307903,-34.1716195 -3.595275,-0.2646687 0.982509,31.6603955 -2.707087,31.8002505 -3.876112,0.146922 1.171846,-37.1841337 -3.412718,-37.1962202 -3.357668,-0.00891 0.236799,35.7676432 -3.24155,36.2692632 -3.214344,-0.708138 0.64195,-39.492722 -3.113036,-39.50555 -3.875144,-0.01336 0.656091,38.55503 -3.356007,38.648798 -3.36357,0.04378 1.42706,-38.706539 -2.986543,-38.57548 -4.059758,0.120547 0.15532,38.387203 -3.181496,38.348388 -3.602901,-0.0419 0.922134,-35.4098546 -3.116212,-35.1755343 C 35.926142,-3.8215033 38.884074,21.944812 35.931599,30.127695 32.694474,26.924403 36.165279,4.7968253 32.565916,0.9031389 29.612897,5.1523383 31.921886,30.665549 29.520942,30.762413 26.571078,30.904753 29.378125,10.746877 26.21595,10.555733 24.321417,10.441231 23.317919,33.390271 20.999359,33.478434 18.303579,33.747556 18.60132,20.569788 16.737084,20.6111 14.576034,20.886522 15.142202,35.030876 12.306889,35.06419 10.676423,35.451718 10.283441,29.489659 8.8267323,29.629285 7.5205433,29.754477 7.2740646,35.89917 5.112486,37.008392 3.1367793,37.276602 4.0970897,35.126468 5.6352993,31.767759 Z" style="fill:#180002;opacity:0.1"/>
  <path style="fill:url(#linearGradient4726-5)" d="M 5.6352993,29.767759 62.734826,-75.024212 123.96653,38.315665 c 0,0 0.35403,0.876041 -1.24072,0.42236 -1.49907,-0.426473 -2.78134,-1.684096 -4.33415,-1.550308 -1.3068,0.112625 -2.08724,2.004126 -3.38233,1.796355 -1.85129,-0.297024 -2.79925,-3.82502 -4.6734,-3.769939 -1.65081,0.04849 -1.24479,3.203347 -3.70803,3.411426 -2.18596,0.184686 -1.83021,-5.811037 -4.03255,-5.995627 -1.49328,-0.12516 -1.82476,6.17778 -3.676803,6.176457 -1.960638,-0.0011 0.0811,-9.066153 -2.744244,-9.217598 -2.211422,-0.118543 -0.995347,7.956389 -2.98144,7.96497 -2.740493,0.01177 -0.413998,-13.22433 -3.792031,-13.16851 -2.401533,0.03971 0.181822,12.251485 -2.94548,12.213094 -2.879756,-0.03535 -0.104289,-18.90008 -3.337532,-18.673338 -2.667579,0.187072 0.328935,16.873741 -2.606202,16.943358 -3.553619,0.08428 -0.01495,-23.242818 -3.544816,-23.273612 -3.121461,-0.02736 -0.32407,20.633693 -3.196738,20.634628 -3.481642,0.0011 0.01082,-26.659879 -3.299091,-26.8363884 -3.601237,-0.192035 0.88103,26.7808844 -3.045518,26.7523714 -3.788347,-0.02736 1.080353,-33.8485736 -3.307903,-34.1716195 -3.595275,-0.2646687 0.982509,31.6603955 -2.707087,31.8002505 -3.876112,0.146922 1.171846,-37.1841337 -3.412718,-37.1962202 -3.357668,-0.00891 0.236799,35.7676432 -3.24155,36.2692632 -3.214344,-0.708138 0.64195,-39.492722 -3.113036,-39.50555 -3.875144,-0.01336 0.656091,38.55503 -3.356007,38.648798 -3.36357,0.04378 1.42706,-38.706539 -2.986543,-38.57548 -4.059758,0.120547 0.15532,38.387203 -3.181496,38.348388 -3.602901,-0.0419 0.922134,-35.4098546 -3.116212,-35.1755343 C 35.926142,-5.8215033 38.884074,19.944812 35.931599,28.127695 32.694474,24.924403 36.165279,2.7968253 32.565916,-1.0968611 29.612897,3.1523383 31.921886,28.665549 29.520942,28.762413 26.571078,28.904753 29.378125,8.7468773 26.21595,8.5557333 24.321417,8.4412313 23.317919,31.390271 20.999359,31.478434 18.303579,31.747556 18.60132,18.569788 16.737084,18.6111 14.576034,18.886522 15.142202,33.030876 12.306889,33.06419 10.676423,33.451718 10.283441,27.489659 8.8267323,27.629285 7.5205433,27.754477 7.2740646,33.89917 5.112486,35.008392 3.1367793,35.276602 4.0970897,33.126468 5.6352993,29.767759 Z"/>
 </g>
</svg>
